X:1
T:Norman, 8.10.10.4
T:Norman, 8.10.10.4
T:F. Burgin, before 1913
T:Public Domain Courtesy of the Cyber Hymnal™
C:F. Burgin, before 1913
Z:Public Domain
Z:Courtesy of the Cyber Hymnal™
%%score ( 1 2 ) ( 3 4 )
L:1/8
M:4/4
K:D
V:1 treble 
V:2 treble 
V:3 bass 
V:4 bass 
V:1
 [DF]4 [DF]2 [DG]2 A8 | [DG]4 D2 [CE]2 [DF]8 | [EA]4 [FA]2 [EA]2 [Dd]2 [Ec]2 [FB]2 [FA]2 | %3
 A4 [E^G]4 [EA]8 | [EB]4 [EB]2 [EB]2 E2 [^DF]2 [EG]2 [EA]2 | [DF]4 D4 [CE]8 | %6
 (D4 [B,D]2) [B,D]2 A8 | [A,D]12 |] %8
V:2
 x8 (D4 C4) | x4 D2 x10 | x16 | (E2 FE) x12 | x8 E2 x6 | x4 D4 x8 | D4 (D4 C4) x4 | x12 |] %8
V:3
 A,4 [B,,B,]2 [B,,G,]2 (F,4 A,4) | [B,,G,]4 [G,B,]2 [G,_B,]2 [D,A,]8 | %2
 [C,A,]4 [D,D]2 [C,A,]2 (F,^G,) [B,,A,]2 [C,D]2 [^D,B,]2 | (C2 DC) (B,2 D2) [A,,C]8 | %4
 [G,C]4 [G,C]2 [G,C]2 [A,C]2 [F,A,]2 [E,B,]2 [C,A,]2 | [D,A,]4 [F,,A,]4 [A,,A,]8 | %6
 ([B,,F,]4 [A,,F,]2) [G,,G,]2 (E,4 G,4) | [D,F,]12 |] %8
V:4
 (D,2 C,2) x2 A,,8 x2 | x16 | x8 B,,2 x6 | E,4 E,4 x8 | x16 | x16 | x8 A,,8 | x12 |] %8

